dist/img/footer/social/instagram.svg

<svg width="16" height="15" viewBox="0 0 16 15" fill="none" xmlns="http://www.w3.org/2000/svg">
<path d="M13.9815 1.66473L13.9821 1.6654C14.7328 2.41203 14.9857 3.3241 15.0392 4.45235L15.5386 4.42866L15.0394 4.45704C15.1082 5.66665 15.1082 9.32661 15.0394 10.5362L15.0393 10.5395C14.9825 11.6689 14.7295 12.5817 13.9815 13.3285L13.9808 13.3292C13.2328 14.0788 12.3188 14.3314 11.1883 14.3849L11.1883 14.3849L11.1836 14.3851C9.97196 14.4538 6.30265 14.4538 5.09099 14.3851L5.0877 14.3849C3.95669 14.3283 3.0445 14.0758 2.29247 13.3279C1.54178 12.5812 1.28893 11.6692 1.23541 10.5409L1.23543 10.5409L1.23517 10.5362C1.1664 9.32661 1.1664 5.66333 1.23517 4.45372L1.23518 4.45372L1.23534 4.45042C1.29212 3.31989 1.54224 2.40824 2.29247 1.66208C3.04429 0.914324 3.95946 0.661801 5.08638 0.608375L5.08638 0.608396L5.09099 0.608135C6.30265 0.539476 9.97196 0.539476 11.1836 0.608135L11.1836 0.608146L11.1869 0.60831C12.3186 0.664962 13.2333 0.917737 13.9815 1.66473ZM12.7163 13.7621L12.718 13.7614C13.4993 13.4486 14.1029 12.847 14.4134 12.0679C14.6452 11.4864 14.7184 10.5746 14.7443 9.74514C14.7634 9.13365 14.757 8.50715 14.752 8.00948C14.75 7.81632 14.7483 7.64257 14.7483 7.49663C14.7483 7.35067 14.75 7.17695 14.752 6.98385C14.757 6.48646 14.7634 5.86051 14.7443 5.24936C14.7184 4.42005 14.6451 3.50865 14.4136 2.9259L14.4129 2.92414C14.0994 2.14363 13.4967 1.54123 12.7168 1.23138L12.7155 1.23084C12.1343 1.0019 11.2222 0.928704 10.3913 0.902446C9.77424 0.882947 9.14268 0.888989 8.64244 0.893775C8.45319 0.895586 8.28273 0.897216 8.13897 0.897216C7.99273 0.897216 7.8187 0.895459 7.62528 0.893506C7.12709 0.888475 6.50022 0.882144 5.88813 0.901194C5.05746 0.927046 4.14497 1.00019 3.56165 1.23116L3.56165 1.23116L3.55988 1.23186C2.7786 1.54466 2.17507 2.14627 1.86452 2.92536L1.86452 2.92536L1.86398 2.92673C1.63452 3.50735 1.56121 4.41832 1.53491 5.24788C1.51538 5.86398 1.52143 6.49461 1.52622 6.99405C1.52803 7.18298 1.52967 7.35313 1.52967 7.49663C1.52967 7.64259 1.52791 7.81631 1.52595 8.00941C1.52091 8.5068 1.51457 9.13275 1.53365 9.7439C1.55955 10.5732 1.6328 11.4846 1.8643 12.0674L1.86501 12.0691C2.17851 12.8496 2.78124 13.452 3.56111 13.7619L3.56247 13.7624C4.14366 13.9914 5.05572 14.0646 5.88664 14.0908C6.50369 14.1103 7.13525 14.1043 7.6355 14.0995C7.82474 14.0977 7.9952 14.096 8.13897 14.096C8.2852 14.096 8.45923 14.0978 8.65265 14.0998C9.15084 14.1048 9.77771 14.1111 10.3898 14.0921C11.2205 14.0662 12.133 13.9931 12.7163 13.7621ZM4.81774 7.49663C4.81774 5.66182 6.2992 4.18159 8.13897 4.18159C9.97873 4.18159 11.4602 5.66182 11.4602 7.49663C11.4602 9.33144 9.97873 10.8117 8.13897 10.8117C6.2992 10.8117 4.81774 9.33144 4.81774 7.49663ZM5.15467 7.49663C5.15467 9.14194 6.49716 10.4769 8.13897 10.4769C9.78077 10.4769 11.1233 9.14194 11.1233 7.49663C11.1233 5.85176 9.78453 4.51636 8.13897 4.51636C6.4934 4.51636 5.15467 5.85176 5.15467 7.49663ZM12.5078 3.52554C12.5078 3.74214 12.3345 3.91538 12.1165 3.91538C11.8976 3.91538 11.7252 3.74125 11.7252 3.52554C11.7252 3.31104 11.8997 3.13569 12.1165 3.13569C12.3333 3.13569 12.5078 3.31104 12.5078 3.52554ZM14.3347 13.6824C15.2061 12.8124 15.4788 11.7566 15.5386 10.5646L5.0627 0.108936C3.8721 0.165381 2.81453 0.437646 1.93987 1.30757C1.06522 2.17749 0.795836 3.23335 0.735973 4.42534C0.666134 5.65386 0.666134 9.33608 0.735973 10.5646C0.79251 11.7566 1.06522 12.8124 1.93987 13.6824C2.81453 14.5523 3.86878 14.8246 5.0627 14.8843C6.29321 14.9541 9.9814 14.9541 11.2119 14.8843C12.4058 14.8279 13.4634 14.5556 14.3347 13.6824Z" fill="black" stroke="black"/>
</svg>

<svg width="16" height="15" fill="none" xmlns="http://www.w3.org/2000/svg"><path d="M13.982 1.665h0c.75.747 1.004 1.66 1.057 2.787l.5-.023-.5.028c.07 1.21.07 4.87 0 6.08v.002c-.056 1.13-.31 2.043-1.057 2.79h-.001c-.748.75-1.662 1.002-2.793 1.056h0-.004c-1.212.069-4.881.069-6.093 0h-.003c-1.131-.057-2.043-.31-2.796-1.057-.75-.747-1.003-1.659-1.057-2.787h0v-.005c-.069-1.21-.069-4.873 0-6.082h0V4.45c.057-1.13.307-2.042 1.057-2.788.752-.748 1.667-1 2.794-1.054h.005C6.303.54 9.972.54 11.184.608h.003c1.132.057 2.046.31 2.795 1.057zm-1.266 12.097h.002a3.013 3.013 0 001.695-1.694c.232-.582.305-1.493.331-2.323.02-.611.013-1.238.008-1.736a52.588 52.588 0 010-1.025c.005-.498.011-1.123-.008-1.735-.026-.829-.099-1.74-.33-2.323l-.001-.002a3.013 3.013 0 00-1.696-1.693h-.002c-.58-.23-1.493-.302-2.324-.329A42.904 42.904 0 008.642.894L8.14.897 7.625.894A42.506 42.506 0 005.888.9c-.83.026-1.743.1-2.326.33h0-.002a3.013 3.013 0 00-1.695 1.694h0l-.001.002c-.23.58-.303 1.491-.33 2.32a43.26 43.26 0 00-.008 1.747c.002.189.004.36.004.503 0 .146-.002.32-.004.512a42.64 42.64 0 00.008 1.735c.026.83.099 1.74.33 2.323l.001.002c.314.78.916 1.383 1.696 1.693h.001c.582.23 1.494.303 2.325.329.617.02 1.248.013 1.749.009.189-.002.36-.004.503-.004.146 0 .32.002.514.004.498.005 1.125.011 1.737-.008.83-.026 1.743-.099 2.326-.33zM4.818 7.497a3.312 3.312 0 013.321-3.315c1.84 0 3.321 1.48 3.321 3.315a3.312 3.312 0 01-3.321 3.315 3.312 3.312 0 01-3.321-3.315zm.337 0a2.987 2.987 0 002.984 2.98 2.987 2.987 0 002.984-2.98 2.985 2.985 0 00-5.968 0zm7.353-3.971c0 .216-.173.39-.391.39a.39.39 0 11.391-.39zm1.827 10.156c.871-.87 1.144-1.925 1.204-3.117L5.063.109C3.873.165 2.815.438 1.94 1.308 1.065 2.178.796 3.233.736 4.425c-.07 1.229-.07 4.911 0 6.14.057 1.192.33 2.247 1.204 3.117.875.87 1.929 1.143 3.123 1.202 1.23.07 4.918.07 6.149 0 1.194-.056 2.251-.328 3.123-1.202z" fill="#000" stroke="#000"/></svg>
